X:1
T:Title
%%score { ( 1 3 ) | ( 2 4 ) }
L:1/8
M:6/8
K:A
V:1 treble nm="Grand Piano"
V:3 treble 
V:2 bass 
V:4 bass 
V:1
 z3 z2[Q:1/4=90] [CE] | [CE]2 [CE] [DF]2 [CE] | [DE]2 [DG] [DG]2 E | E2 E F2 G |[M:5/8] A3 z2 | %5
[M:1/8] [CE] |[M:3/4] [CE]2 [CE] [DF]2 [CE] | [DE]2 [DG] [DG]2 E | E2 E F2 G |[M:5/8] [CA]3 z2 | %10
[M:1/8] B |[M:3/4] B2 E E2 d | [Ec]2 [CA] [CA]2 B | B2 B c2 d |[M:5/8] [Ec]3 z2 |[M:1/8] [CA] | %16
[M:3/4] [CA]2 [CE] [CE]2 [CA] | A2 G G2 F | E2 E F2 G |[M:5/8] [CA]3 z2 |] %20
V:2
 z3 z2 [A,,A,] | [A,,A,]2 [A,,A,] [A,,A,]2 [A,,A,] | [B,,G,]2 [B,,E,] [B,,E,]2 [E,G,D] | %3
 [E,G,D]2 [E,G,D] [E,A,D]2 [E,B,D] |[M:5/8] z z2 E2 |[M:1/8] [A,,A,] | %6
[M:3/4] [A,,A,]2 [A,,A,] [A,,A,]2 [A,,A,] | [B,,G,]2 [B,,E,] [B,,E,]2 [E,G,D] | %8
 [E,G,D]2 [E,G,D] [E,A,D]2 [E,B,D] |[M:5/8] [A,,A,]3 z2 |[M:1/8] [E,G,D] | %11
[M:3/4] [E,G,D]2 [E,G,D] [E,G,D]2 [E,B,E] | [A,,A,]2 [A,,E,] [A,,E,]2 [E,G,E] | %13
 [E,G,E]2 [E,G,E] [E,A,E]2 [E,B,E] |[M:5/8] [A,,A,]3 z2 |[M:1/8] [A,,E,] | %16
[M:3/4] [A,,E,]2 [A,,A,] [A,,A,]2 [A,,A,] | [E,B,D]2 [E,B,D] [E,B,D]2 [E,A,D] | %18
 [E,G,D]2 [E,G,D] [E,A,D]2 [E,B,D] |[M:5/8] [A,,A,]3 z2 |] %20
V:3
 x6 | x6 | x6 | x6 |[M:5/8] [A,C]-[A,C]- [A,C]3 |[M:1/8] x |[M:3/4] x6 | x6 | x6 |[M:5/8] x5 | %10
[M:1/8] x |[M:3/4] x6 | x6 | x6 |[M:5/8] x5 |[M:1/8] x |[M:3/4] x6 | x6 | x6 |[M:5/8] x5 |] %20
V:4
 x6 | x6 | x6 | x6 |[M:5/8] A,,-A,,- A,,3 |[M:1/8] x |[M:3/4] x6 | x6 | x6 |[M:5/8] x5 |[M:1/8] x | %11
[M:3/4] x6 | x6 | x6 |[M:5/8] x5 |[M:1/8] x |[M:3/4] x6 | x6 | x6 |[M:5/8] x5 |] %20

